!!!OTL: Brautlied (2-96) S. 279
!!!id: P0967
**kern
*clefG2
*k[f#]
*G:
{4d
=1
4g
8d
8d
4g
8b
8b
=2
4dd
8cc
8b
4a}
=3
{4a
=4
8a
8a
8a
8a
4a
8a
8b
=5
4g
8f#
8e
4d}
=6
{8d
8d
=7
4g
8d
8d
4g
8a
8b
=8
8dd
8dd
8cc
8b
4a}
4r
=9
{8dd
8dd
8b
8a
8g
8g
8b
8b
=10
4a
4d
4g}
==
*-
!!!minrhy: 8
!!!meters: 4/4 ]  ZZ[4
!!!cut: Brautlied (2-96) S. 279
!!!reg: Lothringen
!!!trd: PINCK, Louis: Verklingende Weisen, Bd 2, Metz 1928
!!!rhy1: X_  X_XXX_XX  X_XXX_
!!!rhy2: X_  XXXXX_XX  X_XXX_
!!!key: P0967  08  G 4/4 ]  ZZ[4
!!!mod: HEPTATONIK IONISCH]  AMBITUS[8
!!!kad: 2-521
!!!akz: 1152_221-5_1152_5121_
!!!fot: 'a__b__av_c__
!!!for: 'a__b__c__d__
!!!fok: '^a_\__^a_Vd_
!! PHRAS[VORWIEGEND AUFTAKTIG]
!!!fkt: ???, Brautlied
!! LOTH VKL
!! PR[29] 2K[5] 2G[5] 3K[5] 3G[10] 4A[2] 4Ü[0] 5A[0] 6K[2] 6G[0]
!! 7K[0] 7G[0] 8A[0] MEHR[0] SI[29] ABS[42] SR[10] SP[19]
!! ST[14] 2k[7] 2g[29] 3k[5] 3g[0] 4d[0] 4ü[0] 5d[0] 6k[2] 6g[0]
!! 7k[0] 7g[0] 8d[0] mehr[0] si[43] dm[-14] sr[36] sp[7]
!! 1F[11] 2F[65] 3F[17] 4F[0] LF[0] 2P[2] 3P[4] 4P[0] TRI[0] DF[5] AB[46]
!! TF[0] U3K[0] U3[0] U4[0] U4Ü[0] U5[0] U6K[0] U6[0] U7K[0] U7[5]
!! N1[9] N2K[0] N2[12] N3K[0] N3[21] N4[9] N4Ü[0] N5[35] N6K[0] N6[7]
!!!n7k: 0] N7[2] O1[0] O2K[0] O2[0] O3K[0] O3[0] HÖ[0
